X:233
T:Steirische Jodler und Taenze Nr. 1 - 48 (31.)
C:traditionell
A:Salzkammergut
S:MIDI erhalten von Christian Amon. Nach einer kopie im besitz von Johann Stoeckl eines manuscriptes. Stoeckl(zitiert von Amon): "diese sammlung wurde 1935 im hause der familie Hohenlohe-Schillingfuerst gefunden. Sie wurde von einem der beiden brueder Steinegger 1866 verfasst. Die originale sind im Ausseer Kammerhofmuseum".
M:3/4
L:1/8
K:G
V:1
F |\
Gd Bc d2 | cF F3 G | Fd c3 F | Gd B3 F |\
Gd Bc d2 | cF F3 G | Fd cB cF | G4 z |*
V:2
D |\
DBGA B2 | AD D3 D | DB A3 D | DB G3 D |\
DBGA B2 | AD D3 D | DBAGAd | B4 z |*
